X: 3270
M: 6/8
L: 1/8
K: G
uD |\
vG2vG uB2uG | c2c d2B | G2G B2A | DEF G2D |\
|: d |\
d2d dBG | G2G F2E | DFA f2e | d2d ^c3 |\
=cdc g2B | dcc cBA | GAB Bcd | DEF G2 :|


